Yaru++/actions/16/zoom-fit-page.svg

<svg height="16" width="16" xmlns="http://www.w3.org/2000/svg">
  <g fill="#808080">
    <path d="m5.994 2c-1.258.015-2.179-.03-2.932.385a1.88 1.88 0 0 0 -.837.998c-.165.437-.225.96-.225 1.617v2h1v-2c0-.592.063-1.006.16-1.266.098-.26.201-.371.385-.472.365-.202 1.195-.247 2.455-.262h1v-1h-1.002zm3.006 0v1h1c1.258.015 2.087.06 2.453.262.183.1.29.212.387.472s.16.674.16 1.266v2h1v-2c0-.658-.06-1.179-.225-1.617a1.88 1.88 0 0 0 -.838-.998c-.752-.416-1.673-.37-2.931-.385h-.004zm-7 7v2c0 .658.06 1.179.225 1.617.164.439.461.79.837.998.753.416 1.674.37 2.932.385h1.006v-1h-1c-1.259-.015-2.09-.06-2.455-.262-.184-.1-.287-.212-.385-.472-.097-.26-.16-.674-.16-1.266v-2zm11 0v2c0 .592-.063 1.006-.16 1.266-.098.26-.202.371-.385.472-.366.202-1.197.247-2.455.262h-1v1h1.006c1.258-.015 2.179.03 2.932-.385a1.88 1.88 0 0 0 .837-.998c.165-.438.225-.96.225-1.617v-2z"/>
    <path d="m9.3333334 4.4444439v7.1111121h-2.6666668v-7.1111121z"/>
  </g>
</svg>

<svg xmlns="http://www.w3.org/2000/svg" width="16" height="16" version="1.1">
 <path fill="#808080" d="M5.994 2c-1.258.015-2.179-.03-2.932.385a1.88 1.88 0 0 0-.837.998C2.06 3.82 2 4.343 2 5v2h1V5c0-.592.063-1.006.16-1.266.098-.26.201-.371.385-.472C3.91 3.06 4.74 3.015 6 3h1V2H5.998zM9 2v1h1c1.258.015 2.087.06 2.453.262.183.1.29.212.387.472.097.26.16.674.16 1.266v2h1V5c0-.658-.06-1.179-.225-1.617a1.88 1.88 0 0 0-.838-.998c-.752-.416-1.673-.37-2.931-.385h-.004zM2 9v2c0 .658.06 1.179.225 1.617.164.439.461.79.837.998.753.416 1.674.37 2.932.385H7v-1H6c-1.259-.015-2.09-.06-2.455-.262-.184-.1-.287-.212-.385-.472C3.063 12.006 3 11.592 3 11V9zm11 0v2c0 .592-.063 1.006-.16 1.266-.098.26-.202.371-.385.472-.366.202-1.197.247-2.455.262H9v1h1.006c1.258-.015 2.179.03 2.932-.385a1.88 1.88 0 0 0 .837-.998c.165-.438.225-.96.225-1.617V9z" color="#000" font-family="sans-serif" font-weight="400" overflow="visible"/>
 <path class="ColorScheme-Text" d="M 9.3333334,4.4444439 V 11.555556 H 6.6666666 V 4.4444439 Z" style="fill:#808080"/>
</svg>
